svgs/thin/croissant.svg

<svg xmlns="http://www.w3.org/2000/svg" viewBox="0 0 512 512"><!--! Font Awesome Pro 6.3.0 by @fontawesome - https://fontawesome.com License - https://fontawesome.com/license (Commercial License) Copyright 2023 Fonticons, Inc. --><path d="M507.4 187.2c-14.56-33.74-34.56-65.08-59.26-93.32c3.21-18.17-5.67-30.91-14.03-37.13c-53.64-40.89-115.1-52.42-185.3-35.01C240.5 8.504 226.2 0 209.9 0C206.1 0 202.3 .4687 198.6 1.393C101.3 25.67 25.67 101.2 1.383 198.6C-3.594 218.5 5.236 238.7 21.88 249.1c-17.33 69.21-5.783 131.5 35 184.1c6.366 8.549 19.06 17.36 37.23 14.13c28.2 24.67 59.52 44.66 93.28 59.23C194.5 510.5 201.9 512 209.1 512c10.88 0 21.3-3.438 29.58-10.16c14.06-11.2 20.2-29.73 16.06-48.38l-24.03-107.3c3.732-4 6.816-8.686 8.76-14.87c0 0 3.043-9.246 4.75-14.3c12.06-.1211 23.85-5.027 32.4-13.58l26.82-26.82c8.824-8.824 13.42-20.56 13.47-32.56c5.084-1.719 14.37-4.773 14.37-4.773c6.19-1.943 10.88-5.027 14.87-8.76l107.3 24.03c3.844 .8594 7.688 1.266 11.47 1.266c14.52 0 28.02-6.172 36.86-17.28C512.1 224.7 515.1 205 507.4 187.2zM84.96 433.1c-6.031-.7813-11.88-4.078-15.31-8.672c-37.22-48.86-48.02-105.7-32.84-168.1l191.4 58.89c-1.848 5.49-3.217 9.639-3.859 12.2c-1.547 4.969-3.891 8.344-6.984 10.75l-116.3 91.17C95.2 433.3 89.14 433.6 84.96 433.1zM228.7 489.4c-9.203 7.422-22.55 8.672-34.91 3.359c-29.84-12.89-57.61-30.34-82.98-51.53c.0938-.0723 .2109-.0957 .3027-.1699l105.9-83.03l22.16 98.96C241.9 469.6 237.9 481.1 228.7 489.4zM292.1 265.3l-26.82 26.82c-4.396 4.394-15.74 12.15-30.38 7.594L37.44 238.9C22.01 234.2 12.99 218.2 16.91 202.5c22.79-91.37 94.23-162.8 185.6-185.6c16.83-4.204 32.05 6.275 36.43 20.53l60.76 197.5C303 245.6 300.1 257.3 292.1 265.3zM326.5 223.1c-2.561 .6426-6.652 2.201-12.15 4.053L255.4 36.6c63.27-15.23 120.1-4.402 169.1 32.91c4.531 3.375 7.828 9.203 8.609 15.23c.5156 4.094 .1406 10.22-4.672 16.23L337.3 217.2C334.9 220.3 331.5 222.4 326.5 223.1zM489.3 228.5c-7.328 9.266-19.7 13.23-32.36 10.41l-98.97-22.16l82.99-105.8c.0918-.1152 .1055-.2656 .1973-.3809c21.21 25.39 38.68 53.17 51.55 82.99C498.1 205.9 496.8 219.3 489.3 228.5z"/></svg>

<svg xmlns="http://www.w3.org/2000/svg" viewBox="0 0 512 512"><!-- Font Awesome Pro 6.0.0-alpha2 by @fontawesome - https://fontawesome.com License - https://fontawesome.com/license (Commercial License) --><path d="M507.422 187.188C492.862 153.443 472.859 122.105 448.158 93.867C451.368 75.699 442.488 62.957 434.124 56.734C380.487 15.842 318.146 4.318 248.825 21.729C240.491 8.504 226.188 0 209.913 0C206.125 0 202.334 0.469 198.641 1.393C101.257 25.668 25.668 101.246 1.383 198.629C-3.594 218.541 5.236 238.652 21.883 249.066C4.549 318.277 16.1 380.547 56.885 434.062C63.252 442.612 75.941 451.419 94.118 448.189C122.318 472.855 153.642 492.852 187.403 507.422C194.496 510.5 201.887 512 209.09 512C219.966 512 230.388 508.562 238.669 501.844C252.732 490.641 258.872 472.109 254.732 453.469L230.706 346.152C234.438 342.152 237.522 337.467 239.466 331.281C239.466 331.281 242.509 322.035 244.216 316.98C256.275 316.859 268.064 311.953 276.613 303.404L303.437 276.586C312.262 267.762 316.857 256.027 316.912 244.023C321.996 242.305 331.279 239.25 331.279 239.25C337.469 237.307 342.157 234.223 346.151 230.49L453.484 254.516C457.328 255.375 461.172 255.781 464.953 255.781C479.469 255.781 492.969 249.609 501.813 238.5C512.985 224.688 515.141 205.016 507.422 187.188ZM84.964 433.109C78.932 432.328 73.089 429.031 69.651 424.438C32.43 375.58 21.635 318.732 36.813 255.479L228.231 314.365C226.384 319.855 225.014 324.004 224.372 326.563L224.184 326.5C222.637 331.469 220.481 334.906 217.387 337.312L101.136 428.484C95.198 433.25 89.136 433.641 84.964 433.109ZM228.653 489.375C219.45 496.797 206.106 498.047 193.746 492.734C163.904 479.848 136.134 462.396 110.771 441.201C110.865 441.129 110.982 441.105 111.073 441.031L216.95 357.998L239.106 456.953C241.919 469.578 237.934 481.984 228.653 489.375ZM292.123 265.271L265.302 292.09C260.906 296.484 249.567 304.237 234.921 299.684L37.44 238.93C22.012 234.182 12.992 218.164 16.908 202.5C39.694 111.131 111.138 39.695 202.522 16.914C219.351 12.71 234.57 23.189 238.956 37.441L299.718 234.895C303.041 245.574 300.074 257.322 292.123 265.271ZM326.498 223.969L326.561 224.156C324 224.799 319.846 226.17 314.344 228.021L255.437 36.602C318.707 21.375 375.573 32.199 424.499 69.516C429.031 72.891 432.328 78.719 433.109 84.75C433.624 88.844 433.249 94.969 428.437 100.984L337.295 217.188C334.904 220.266 331.467 222.422 326.498 223.969ZM489.328 228.484C482 237.75 469.625 241.719 456.969 238.891L357.995 216.732L440.984 110.922C441.076 110.807 441.089 110.656 441.181 110.541C462.388 135.934 479.857 163.709 492.735 193.531C498.078 205.891 496.797 219.266 489.328 228.484Z"/></svg>
